_includes/icons/ios-heavy-goods-vehicle.svg

<svg fill="#666" height="50" viewBox="0 0 50 50" width="50" xmlns="http://www.w3.org/2000/svg"><path d="m2.84375 13c-1.558594 0-2.84375 1.285156-2.84375 2.84375v26.15625c0 1.660156 1.339844 3 3 3h4.09375c.476563 2.835938 2.941406 5 5.90625 5s5.429688-2.164062 5.90625-5h9.25c.738281 0 1.398438-.3125 1.90625-.78125.519531.457031 1.183594.773438 1.9375.78125h1.09375c.476563 2.835938 2.941406 5 5.90625 5 3.300781 0 6-2.699219 6-6s-2.699219-6-6-6c-2.964844 0-5.429687 2.164063-5.90625 5h-1.09375c-.1875 0-.472656-.128906-.6875-.34375s-.3125-.472656-.3125-.65625v-19c0-.375.625-1 1-1h8c.785156 0 1.890625.839844 2.65625 1.75.007813.011719.023438.019531.03125.03125l.15625.21875h-4.84375c-1.59375 0-3 1.289063-3 3v4c0 .832031.375 1.5625.90625 2.09375s1.261719.90625 2.09375.90625h10v8c0 .375-.625 1-1 1h-2v2h2c1.660156 0 3-1.339844 3-3v-9.625c0-2.289062-1.59375-4.3125-1.59375-4.3125h-.03125l-4.125-5.5v-.03125l-.03125-.03125c-.921875-1.113281-2.304687-2.5-4.21875-2.5h-8c-.355469 0-.683594.074219-1 .1875v-4.28125c0-1.535156-1.210937-2.90625-2.8125-2.90625zm0 2h25.34375c.429688 0 .8125.414063.8125.90625v26.25c0 .46875-.371094.84375-.84375.84375h-9.25c-.476562-2.835937-2.941406-5-5.90625-5s-5.429687 2.164063-5.90625 5h-4.09375c-.375 0-1-.628906-1-1v-26.15625c0-.46875.367188-.84375.84375-.84375zm35.15625 11h6.34375l2.4375 3.25s.90625 1.550781 1.09375 2.75h-9.875c-.167969 0-.4375-.125-.65625-.34375s-.34375-.488281-.34375-.65625v-4c0-.503906.59375-1 1-1zm-25 14c2.222656 0 4 1.777344 4 4s-1.777344 4-4 4-4-1.777344-4-4 1.777344-4 4-4zm26 0c2.222656 0 4 1.777344 4 4s-1.777344 4-4 4-4-1.777344-4-4 1.777344-4 4-4z"/></svg>

<svg xmlns="http://www.w3.org/2000/svg" viewBox="0 0 50 50" width="50" height="50" fill="#666"><path d="M 2.84375 13 C 1.285156 13 0 14.285156 0 15.84375 L 0 42 C 0 43.660156 1.339844 45 3 45 L 7.09375 45 C 7.570313 47.835938 10.035156 50 13 50 C 15.964844 50 18.429688 47.835938 18.90625 45 L 28.15625 45 C 28.894531 45 29.554688 44.6875 30.0625 44.21875 C 30.582031 44.675781 31.246094 44.992188 32 45 L 33.09375 45 C 33.570313 47.835938 36.035156 50 39 50 C 42.300781 50 45 47.300781 45 44 C 45 40.699219 42.300781 38 39 38 C 36.035156 38 33.570313 40.164063 33.09375 43 L 32 43 C 31.8125 43 31.527344 42.871094 31.3125 42.65625 C 31.097656 42.441406 31 42.183594 31 42 L 31 23 C 31 22.625 31.625 22 32 22 L 40 22 C 40.785156 22 41.890625 22.839844 42.65625 23.75 C 42.664063 23.761719 42.679688 23.769531 42.6875 23.78125 L 42.84375 24 L 38 24 C 36.40625 24 35 25.289063 35 27 L 35 31 C 35 31.832031 35.375 32.5625 35.90625 33.09375 C 36.4375 33.625 37.167969 34 38 34 L 48 34 L 48 42 C 48 42.375 47.375 43 47 43 L 45 43 L 45 45 L 47 45 C 48.660156 45 50 43.660156 50 42 L 50 32.375 C 50 30.085938 48.40625 28.0625 48.40625 28.0625 L 48.375 28.0625 L 44.25 22.5625 L 44.25 22.53125 L 44.21875 22.5 C 43.296875 21.386719 41.914063 20 40 20 L 32 20 C 31.644531 20 31.316406 20.074219 31 20.1875 L 31 15.90625 C 31 14.371094 29.789063 13 28.1875 13 Z M 2.84375 15 L 28.1875 15 C 28.617188 15 29 15.414063 29 15.90625 L 29 42.15625 C 29 42.625 28.628906 43 28.15625 43 L 18.90625 43 C 18.429688 40.164063 15.964844 38 13 38 C 10.035156 38 7.570313 40.164063 7.09375 43 L 3 43 C 2.625 43 2 42.371094 2 42 L 2 15.84375 C 2 15.375 2.367188 15 2.84375 15 Z M 38 26 L 44.34375 26 L 46.78125 29.25 C 46.78125 29.25 47.6875 30.800781 47.875 32 L 38 32 C 37.832031 32 37.5625 31.875 37.34375 31.65625 C 37.125 31.4375 37 31.167969 37 31 L 37 27 C 37 26.496094 37.59375 26 38 26 Z M 13 40 C 15.222656 40 17 41.777344 17 44 C 17 46.222656 15.222656 48 13 48 C 10.777344 48 9 46.222656 9 44 C 9 41.777344 10.777344 40 13 40 Z M 39 40 C 41.222656 40 43 41.777344 43 44 C 43 46.222656 41.222656 48 39 48 C 36.777344 48 35 46.222656 35 44 C 35 41.777344 36.777344 40 39 40 Z"/></svg>
